Suru++-Ubuntu/apps/scalable/appimagekit-pcloud.svg

<svg width="256" height="256" version="1.1" viewBox="0 0 67.73 67.73" xmlns="http://www.w3.org/2000/svg" xmlns:xlink="http://www.w3.org/1999/xlink">
 <defs>
  <linearGradient id="linearGradient1108" x1="296" x2="296" y1="-212" y2="236" gradientUnits="userSpaceOnUse">
   <stop style="stop-color:#ffffff" offset="0"/>
   <stop style="stop-color:#ffffff;stop-opacity:.09803922" offset=".125"/>
   <stop style="stop-color:#000000;stop-opacity:.09803922" offset=".925"/>
   <stop style="stop-color:#000000;stop-opacity:.49803922" offset="1"/>
  </linearGradient>
  <clipPath id="clipPath1082-3-36">
   <path d="M 361.9375,-212 C 507.2348,-212 528,-191.28677 528,-46.125 V 70.125 C 528,215.28618 507.2348,236 361.9375,236 H 214.0625 C 68.7652,236 48,215.28618 48,70.125 V -46.125 C 48,-191.28677 68.7652,-212 214.0625,-212 Z" style="fill:#8c59d9"/>
  </clipPath>
  <filter id="filter998" x="-.02" y="-.03" width="1.046" height="1.05" style="color-interpolation-filters:sRGB">
   <feGaussianBlur stdDeviation="2.32"/>
  </filter>
  <filter id="filter910" x="-.04" y="-.06" width="1.079" height="1.123" style="color-interpolation-filters:sRGB">
   <feGaussianBlur stdDeviation="3.068"/>
  </filter>
 </defs>
 <g transform="translate(0,-229.26666)">
  <path transform="matrix(.26458333 0 0 .26458333 -1.8735229e-8 232.67026)" d="m162.53675 5.5680001c72.64865 0 83.03125 10.356615 83.03125 82.937505v58.125005c0 72.58059-10.3826 82.9375-83.03125 82.9375h-73.937496c-72.648654 0-83.031254-10.35691-83.031254-82.9375v-58.125005c0-72.58089 10.3826-82.937505 83.031254-82.937505z" style="filter:url(#filter998);opacity:.2"/>
  <path d="m43.004513 233.61429c19.221622 0 21.968685 2.74019 21.968685 21.94388v15.37891c0 19.20362-2.747063 21.94388-21.968685 21.94388h-19.56263c-19.221622 0-21.968685-2.74026-21.968685-21.94388v-15.37891c0-19.20369 2.7470629-21.94388 21.968685-21.94388z" style="fill:#1ebcc5"/>
  <path transform="matrix(.13229167 0 0 .13229167 -4.8768021 261.66013)" d="M 361.9375,-212 C 507.2348,-212 528,-191.28677 528,-46.125 V 70.125 C 528,215.28618 507.2348,236 361.9375,236 H 214.0625 C 68.7652,236 48,215.28618 48,70.125 V -46.125 C 48,-191.28677 68.7652,-212 214.0625,-212 Z" clip-path="url(#clipPath1082-3-36)" style="fill:none;opacity:.4;stroke-linecap:round;stroke-linejoin:round;stroke-width:8;stroke:url(#linearGradient1108)"/>
  <g transform="matrix(.26458333 0 0 .26458333 -22.80541 248.21124)">
   <g transform="translate(.28878329 16.749431)">
    <path transform="translate(85.904893,-88.350994)" d="m125.58203 68.431641c-32.409336 0-58.803278 25.703669-59.943358 57.839839-0.0117-0.48394-0.056641-0.95941-0.056641-1.44336 0-8.88316 1.98153-17.28638 5.44336-24.869136-21.89916 2.746296-38.851563 21.398596-38.851563 44.042966 0 24.53858 19.891118 44.42969 44.429688 44.42969h112.98242v-0.05078c16.27592-0.32957 29.37695-13.60292 29.37695-29.95898 0-9.45025-4.38238-17.86772-11.20508-23.36329-2.70178 5.45698-7.34494 9.75623-13.00976 12.08985 8.08453-4.18032 13.62109-12.59692 13.62109-22.32032 0-13.87994-11.23333-24.98437-25.11328-24.98437-1.05399 0-2.04601 0.076483-3.07031 0.20117 3.47371 7.59761 5.39648 15.88223 5.39648 24.7832 0 0.57302-0.02803 1.13895-0.04883 1.70899-0.99756-32.257908-27.44387-58.105469-59.95117-58.105469zm-0.4707 11.599609c26.67326 0 48.28906 21.62072 48.28906 48.29102 0 26.67029-21.6158 48.29296-48.28906 48.29296-26.673261 0-48.294924-21.62267-48.294924-48.29296 0-26.6703 21.621663-48.29102 48.294924-48.29102zm-0.02149 6.158203c-23.22924 0-42.060543 18.834257-42.060543 42.060547 0 23.22925 18.831303 42.0625 42.060543 42.0625 23.23223 0 42.06055-18.83325 42.06055-42.0625 0-23.22926-18.82832-42.060547-42.06055-42.060547zm-12.55273 18.562497h19.91797c9.86591 0 17.86523 7.99543 17.86523 17.86133 0 9.86294-8.0023 17.85742-17.86523 17.85742v0.02735h-13.13672v7.82617c0 3.74387-3.03144 6.7832-6.78125 6.7832-3.74389 0-6.78125-3.03933-6.78125-6.7832v-36.79102c0-3.74684 3.03736-6.78125 6.78125-6.78125zm6.72851 12.5918v10.55664h0.05274 13.13672 0.05469c2.91553 0 5.27929-2.36572 5.27929-5.28125 0-2.91256-2.36376-5.27539-5.27929-5.27539h-0.05469-13.13672-0.05274z" style="filter:url(#filter910);opacity:.3"/>
    <path transform="translate(85.904893,-88.350994)" d="m125.58203 68.431641c-32.409336 0-58.803278 25.703669-59.943358 57.839839-0.0117-0.48394-0.056641-0.95941-0.056641-1.44336 0-8.88316 1.98153-17.28638 5.44336-24.869136-21.89916 2.746296-38.851563 21.398596-38.851563 44.042966 0 24.53858 19.891118 44.42969 44.429688 44.42969h112.98242v-0.05078c16.27592-0.32957 29.37695-13.60292 29.37695-29.95898 0-9.45025-4.38238-17.86772-11.20508-23.36329-2.70178 5.45698-7.34494 9.75623-13.00976 12.08985 8.08453-4.18032 13.62109-12.59692 13.62109-22.32032 0-13.87994-11.23333-24.98437-25.11328-24.98437-1.05399 0-2.04601 0.076483-3.07031 0.20117 3.47371 7.59761 5.39648 15.88223 5.39648 24.7832 0 0.57302-0.02803 1.13895-0.04883 1.70899-0.99756-32.257908-27.44387-58.105469-59.95117-58.105469zm-0.4707 11.599609c26.67326 0 48.28906 21.62072 48.28906 48.29102 0 26.67029-21.6158 48.29296-48.28906 48.29296-26.673261 0-48.294924-21.62267-48.294924-48.29296 0-26.6703 21.621663-48.29102 48.294924-48.29102zm-0.02149 6.158203c-23.22924 0-42.060543 18.834257-42.060543 42.060547 0 23.22925 18.831303 42.0625 42.060543 42.0625 23.23223 0 42.06055-18.83325 42.06055-42.0625 0-23.22926-18.82832-42.060547-42.06055-42.060547zm-12.55273 18.562497h19.91797c9.86591 0 17.86523 7.99543 17.86523 17.86133 0 9.86294-8.0023 17.85742-17.86523 17.85742v0.02735h-13.13672v7.82617c0 3.74387-3.03144 6.7832-6.78125 6.7832-3.74389 0-6.78125-3.03933-6.78125-6.7832v-36.79102c0-3.74684 3.03736-6.78125 6.78125-6.78125zm6.72851 12.5918v10.55664h0.05274 13.13672 0.05469c2.91553 0 5.27929-2.36572 5.27929-5.28125 0-2.91256-2.36376-5.27539-5.27929-5.27539h-0.05469-13.13672-0.05274z" style="fill:#ffffff"/>
   </g>
  </g>
 </g>
</svg>

<svg xmlns="http://www.w3.org/2000/svg" xmlns:xlink="http://www.w3.org/1999/xlink" width="256" height="256" version="1.1" viewBox="0 0 67.73 67.73">
 <defs>
  <linearGradient id="linearGradient1108" x1="296" x2="296" y1="-212" y2="236" gradientUnits="userSpaceOnUse" xlink:href="#linearGradient1013"/>
  <linearGradient id="linearGradient1013">
   <stop offset="0" style="stop-color:#ffffff"/>
   <stop style="stop-color:#ffffff;stop-opacity:0.09803922" offset=".125"/>
   <stop style="stop-color:#000000;stop-opacity:0.09803922" offset=".925"/>
   <stop offset="1" style="stop-color:#000000;stop-opacity:0.49803922"/>
  </linearGradient>
  <clipPath id="clipPath1082-3-36" clipPathUnits="userSpaceOnUse">
   <path d="M 361.9375,-212 C 507.2348,-212 528,-191.28677 528,-46.125 V 70.125 C 528,215.28618 507.2348,236 361.9375,236 H 214.0625 C 68.7652,236 48,215.28618 48,70.125 V -46.125 C 48,-191.28677 68.7652,-212 214.0625,-212 Z" style="fill:#8c59d9"/>
  </clipPath>
  <filter style="color-interpolation-filters:sRGB" id="filter998" width="1.046" height="1.05" x="-.02" y="-.03">
   <feGaussianBlur stdDeviation="2.32"/>
  </filter>
  <filter style="color-interpolation-filters:sRGB" id="filter910" width="1.079" height="1.123" x="-.04" y="-.06">
   <feGaussianBlur stdDeviation="3.068"/>
  </filter>
 </defs>
 <g transform="translate(0,-229.26666)">
  <path d="m 162.53675,5.5680001 c 72.64865,0 83.03125,10.3566149 83.03125,82.9375049 v 58.125005 c 0,72.58059 -10.3826,82.9375 -83.03125,82.9375 H 88.599254 C 15.9506,229.56801 5.568,219.2111 5.568,146.63051 V 88.505505 c 0,-72.58089 10.3826,-82.9375049 83.031254,-82.9375049 z" transform="matrix(0.26458333,0,0,0.26458333,-1.8735229e-8,232.67026)" style="opacity:0.2;filter:url(#filter998)"/>
  <path style="fill:#1ebcc5" d="m 43.004513,233.61429 c 19.221622,0 21.968685,2.74019 21.968685,21.94388 v 15.37891 c 0,19.20362 -2.747063,21.94388 -21.968685,21.94388 h -19.56263 c -19.2216217,0 -21.9686846,-2.74026 -21.9686846,-21.94388 v -15.37891 c 0,-19.20369 2.7470629,-21.94388 21.9686846,-21.94388 z"/>
  <path d="M 361.9375,-212 C 507.2348,-212 528,-191.28677 528,-46.125 V 70.125 C 528,215.28618 507.2348,236 361.9375,236 H 214.0625 C 68.7652,236 48,215.28618 48,70.125 V -46.125 C 48,-191.28677 68.7652,-212 214.0625,-212 Z" clip-path="url(#clipPath1082-3-36)" transform="matrix(0.13229167,0,0,0.13229167,-4.8768021,261.66013)" style="opacity:0.4;fill:none;stroke:url(#linearGradient1108);stroke-width:8;stroke-linecap:round;stroke-linejoin:round"/>
  <g transform="matrix(0.26458333,0,0,0.26458333,-22.80541,248.21124)">
   <g transform="translate(0.28878329,16.749431)">
    <path style="filter:url(#filter910);opacity:0.3" d="M 125.58203 68.431641 C 93.172694 68.431641 66.778752 94.13531 65.638672 126.27148 C 65.626972 125.78754 65.582031 125.31207 65.582031 124.82812 C 65.582031 115.94496 67.563561 107.54174 71.025391 99.958984 C 49.126231 102.70528 32.173828 121.35758 32.173828 144.00195 C 32.173828 168.54053 52.064946 188.43164 76.603516 188.43164 L 189.58594 188.43164 L 189.58594 188.38086 C 205.86186 188.05129 218.96289 174.77794 218.96289 158.42188 C 218.96289 148.97163 214.58051 140.55416 207.75781 135.05859 C 205.05603 140.51557 200.41287 144.81482 194.74805 147.14844 C 202.83258 142.96812 208.36914 134.55152 208.36914 124.82812 C 208.36914 110.94818 197.13581 99.84375 183.25586 99.84375 C 182.20187 99.84375 181.20985 99.920233 180.18555 100.04492 C 183.65926 107.64253 185.58203 115.92715 185.58203 124.82812 C 185.58203 125.40114 185.554 125.96707 185.5332 126.53711 C 184.53564 94.279202 158.08933 68.431641 125.58203 68.431641 z M 125.11133 80.03125 C 151.78459 80.03125 173.40039 101.65197 173.40039 128.32227 C 173.40039 154.99256 151.78459 176.61523 125.11133 176.61523 C 98.438069 176.61523 76.816406 154.99256 76.816406 128.32227 C 76.816406 101.65197 98.438069 80.03125 125.11133 80.03125 z M 125.08984 86.189453 C 101.8606 86.189453 83.029297 105.02371 83.029297 128.25 C 83.029297 151.47925 101.8606 170.3125 125.08984 170.3125 C 148.32207 170.3125 167.15039 151.47925 167.15039 128.25 C 167.15039 105.02074 148.32207 86.189453 125.08984 86.189453 z M 112.53711 104.75195 L 132.45508 104.75195 C 142.32099 104.75195 150.32031 112.74738 150.32031 122.61328 C 150.32031 132.47622 142.31801 140.4707 132.45508 140.4707 L 132.45508 140.49805 L 119.31836 140.49805 L 119.31836 148.32422 C 119.31836 152.06809 116.28692 155.10742 112.53711 155.10742 C 108.79322 155.10742 105.75586 152.06809 105.75586 148.32422 L 105.75586 111.5332 C 105.75586 107.78636 108.79322 104.75195 112.53711 104.75195 z M 119.26562 117.34375 L 119.26562 127.90039 L 119.31836 127.90039 L 132.45508 127.90039 L 132.50977 127.90039 C 135.4253 127.90039 137.78906 125.53467 137.78906 122.61914 C 137.78906 119.70658 135.4253 117.34375 132.50977 117.34375 L 132.45508 117.34375 L 119.31836 117.34375 L 119.26562 117.34375 z" transform="translate(85.904893,-88.350994)"/>
    <path style="fill:#ffffff" d="M 125.58203 68.431641 C 93.172694 68.431641 66.778752 94.13531 65.638672 126.27148 C 65.626972 125.78754 65.582031 125.31207 65.582031 124.82812 C 65.582031 115.94496 67.563561 107.54174 71.025391 99.958984 C 49.126231 102.70528 32.173828 121.35758 32.173828 144.00195 C 32.173828 168.54053 52.064946 188.43164 76.603516 188.43164 L 189.58594 188.43164 L 189.58594 188.38086 C 205.86186 188.05129 218.96289 174.77794 218.96289 158.42188 C 218.96289 148.97163 214.58051 140.55416 207.75781 135.05859 C 205.05603 140.51557 200.41287 144.81482 194.74805 147.14844 C 202.83258 142.96812 208.36914 134.55152 208.36914 124.82812 C 208.36914 110.94818 197.13581 99.84375 183.25586 99.84375 C 182.20187 99.84375 181.20985 99.920233 180.18555 100.04492 C 183.65926 107.64253 185.58203 115.92715 185.58203 124.82812 C 185.58203 125.40114 185.554 125.96707 185.5332 126.53711 C 184.53564 94.279202 158.08933 68.431641 125.58203 68.431641 z M 125.11133 80.03125 C 151.78459 80.03125 173.40039 101.65197 173.40039 128.32227 C 173.40039 154.99256 151.78459 176.61523 125.11133 176.61523 C 98.438069 176.61523 76.816406 154.99256 76.816406 128.32227 C 76.816406 101.65197 98.438069 80.03125 125.11133 80.03125 z M 125.08984 86.189453 C 101.8606 86.189453 83.029297 105.02371 83.029297 128.25 C 83.029297 151.47925 101.8606 170.3125 125.08984 170.3125 C 148.32207 170.3125 167.15039 151.47925 167.15039 128.25 C 167.15039 105.02074 148.32207 86.189453 125.08984 86.189453 z M 112.53711 104.75195 L 132.45508 104.75195 C 142.32099 104.75195 150.32031 112.74738 150.32031 122.61328 C 150.32031 132.47622 142.31801 140.4707 132.45508 140.4707 L 132.45508 140.49805 L 119.31836 140.49805 L 119.31836 148.32422 C 119.31836 152.06809 116.28692 155.10742 112.53711 155.10742 C 108.79322 155.10742 105.75586 152.06809 105.75586 148.32422 L 105.75586 111.5332 C 105.75586 107.78636 108.79322 104.75195 112.53711 104.75195 z M 119.26562 117.34375 L 119.26562 127.90039 L 119.31836 127.90039 L 132.45508 127.90039 L 132.50977 127.90039 C 135.4253 127.90039 137.78906 125.53467 137.78906 122.61914 C 137.78906 119.70658 135.4253 117.34375 132.50977 117.34375 L 132.45508 117.34375 L 119.31836 117.34375 L 119.26562 117.34375 z" transform="translate(85.904893,-88.350994)"/>
   </g>
  </g>
 </g>
</svg>
